Breeze Round Light/actions/16/labplot-editbreaklayout.svg

<svg xmlns="http://www.w3.org/2000/svg" viewBox="0 0 16 16">
  <defs id="defs3051">
    <style type="text/css" id="current-color-scheme">
      .ColorScheme-Text {
        color:#232629;
      }
      </style>
  </defs>
    <path
       style="fill:currentColor;fill-opacity:1;stroke:none" 
       d="M 2 2 L 2 14 L 8 14 L 8 13.185547 L 8 13 L 8 8 L 13 8 L 14 8 L 14 2 L 2 2 z M 13 8 L 12 9 L 11 10 L 9 12 L 9 13 L 9 14 L 11 14 L 11.59375 13.40625 L 12 13 L 13 12 L 14 11 L 15 10 L 13 8 z M 3 3 L 7 3 L 7 7 L 3 7 L 3 3 z M 8 3 L 13 3 L 13 7 L 8 7 L 8 3 z M 3 8 L 7 8 L 7 13 L 3 13 L 3 8 z M 12.689453 9.6894531 L 13.28125 10.28125 L 13 10.5625 L 11.59375 11.96875 L 11.59375 11.984375 L 10.3125 13.28125 L 9.71875 12.6875 L 12.689453 9.6894531 z "
        class="ColorScheme-Text" />
</svg>

<svg xmlns="http://www.w3.org/2000/svg" viewBox="0 0 16 16">
  <defs id="defs3051">
<style type="text/css" id="current-color-scheme">.ColorScheme-Text {color:#fcfcfc;}</style>
  </defs>
    <path
       style="fill:currentColor;fill-opacity:1;stroke:none" 
       d="m 2,4 c 0,2 0,6 0,8 0,2 2,2 2,2 H 8 V 13.185547 13 8 h 5 1 C 14,8 14,6 14,4 14,2 12,2 12,2 H 4 C 4,2 2,2 2,4 Z m 11,4 -1,1 -1,1 -2,2 v 1 1 h 2 L 11.59375,13.40625 12,13 l 1,-1 1,-1 1,-1 z M 3,4 C 3,3 4,3 4,3 H 7 V 7 H 3 C 3,7 3,5 3,4 Z M 8,3 h 4 c 0,0 1,0 1,1 0,1 0,3 0,3 H 8 Z M 3,8 h 4 v 5 H 4 C 4,13 3,13 3,12 3,11 3,8 3,8 Z M 12.689453,9.6894531 13.28125,10.28125 13,10.5625 11.59375,11.96875 v 0.01563 L 10.3125,13.28125 9.71875,12.6875 Z"
        class="ColorScheme-Text" />
</svg>
